X:7
T:No.107 The Silver Slipper
M:6/8
L:1/8
C:double jig / slip jig
K:D
F2D D3|F2D D3|F2A d2A|
F2D D3|F2D F2A|B2G E2G|
F2D D3|F2D D3|D2F d2A|
F2D D3|F2D F2A|B2G E2G||
F2A d2c d3|F2A d2A Bcd|
F2A d2c d3|B2G E2F G2E|
F2A d2c d3|F2A d2A Bcd|
e2c d2A F2A|[1B2G E2F G2E:|[2B2G E2G||
